X: 757
T: Ferahnâk Seyir
C: Rauf Yektâ
O: Turkey
F: http://compmusic.upf.edu/node/140
N: ferahnak--seyir--semai--1--rauf_yekta
N: makam= ferahnak
N: form= seyir
N: usul= semai = 3/4
M: 3/4
L: 1/16
K: C ^f ^c  
Q: 1/4=120
%%MIDI tuningsystem comma53
d8 e4  | f8 e4  | d2e2 d4 c4  | B8 z4  | z4 c4 d4  | \
w:   |   |   |   |   | 
e4 f4 g4  | a8 g4  | f8 z4  | a4 g4 f4  | 
w:   |   |   |   | 
g4 a8  | _1/4b4 a4 g4  | f4 e8  | z4 A4 B4  | \
w:   |   |   |   | 
c4 d4 e4  | f8 e4  | d8 z4  | d8 d4  | g8 f4  | 
w:   |   |   |   |   | 
f8 e4  | e8 z4  | d4 c4 B4  | c4 d4 e4  | e4 d4 c4  | \
w:   |   |   |   |   | 
B4 A8  | A8 c4  | d8 B4  | A8 G4  | 
w:   |   |   |   | 
F8 D4  | z4 E4 F4  | G4 A4 B4  | A4 G6F2  | \
w:   |   |   |   | 
F8 z4  | |


